X: 2555
T: Ballyhoura Mountains, The
R: polka
M: 2/4
K: Gmajor
Bd/B/ AG|EG G>A|Bd/B/ AG|Bd ed|Bd/B/ AG|
EG G>A|BA/B/ dB|AG G2:|:gd ed|Bd de/f/|gd ed|
Bd A2|gd ed|Bd ed|Bd/B/ AG/A/|BG G2:|

